assets/img/spinner/gradientSpiral.svg

<svg width="144" height="144" viewBox="0 0 144 144" fill="none" xmlns="http://www.w3.org/2000/svg">
<path d="M143.063 72C143.063 32.8465 111.216 0.999969 72.0629 0.999969C32.9094 0.999969 1.06294 32.8465 1.06294 72C1.06294 111.153 32.9094 143 72.0629 143C111.216 143 143.063 111.153 143.063 72Z" stroke="#292929" stroke-opacity="0.5" stroke-width="2"/>
<path d="M72.0629 9.67062C106.434 9.67062 134.392 37.6287 134.392 72C134.392 106.371 106.434 134.329 72.0629 134.329C37.6916 134.329 9.73352 106.371 9.73352 72C9.73352 37.6287 37.6916 9.67062 72.0629 9.67062Z" fill="#242424" fill-opacity="0.5"/>
<path d="M72.0629 9.6707C106.496 9.6707 134.504 37.6288 134.504 72C134.504 106.371 106.496 134.329 72.0629 134.329C37.6298 134.329 9.62139 106.371 9.62139 72C9.62139 37.6288 37.6298 9.6707 72.0629 9.6707ZM72.0629 2.12579C33.4054 2.12579 2.0629 33.412 2.0629 72C2.0629 110.588 33.4054 141.874 72.0629 141.874C110.72 141.874 142.063 110.588 142.063 72C142.071 33.412 110.729 2.12579 72.0629 2.12579Z" fill="#373737" fill-opacity="0.5"/>
<path d="M72.0673 141.966C33.4877 141.966 2.10083 110.58 2.10083 72C2.10083 33.4203 33.4877 2.03351 72.0673 2.03351C74.0457 2.03351 75.6469 3.63471 75.6469 5.61315C75.6469 7.59159 74.0457 9.19279 72.0673 9.19279C37.4362 9.19279 9.2685 37.3605 9.2685 71.9916C9.2685 106.623 37.4362 134.79 72.0673 134.79C106.698 134.79 134.866 106.623 134.866 71.9916C134.866 70.0131 136.467 68.4119 138.446 68.4119C140.424 68.4119 142.025 70.0131 142.025 71.9916C142.034 110.58 110.647 141.966 72.0673 141.966Z" fill="url(#paint0_radial)"/>
<defs>
<radialGradient id="paint0_radial" cx="0" cy="0" r="1" gradientUnits="userSpaceOnUse" gradientTransform="translate(41.0829 31.794) rotate(35.9506) scale(114.949 114.942)">
<stop offset="0.387096" stop-color="#FFFDFD"/>
<stop offset="0.852779" stop-color="#FFFDFD" stop-opacity="0"/>
</radialGradient>
</defs>
</svg>

<svg width="144" height="144" fill="none" xmlns="http://www.w3.org/2000/svg"><path d="M143.063 72c0-39.154-31.847-71-71-71-39.154 0-71 31.846-71 71 0 39.153 31.846 71 71 71 39.153 0 71-31.847 71-71Z" stroke="#292929" stroke-opacity=".5" stroke-width="2"/><path d="M72.063 9.67c34.371 0 62.329 27.959 62.329 62.33 0 34.371-27.958 62.329-62.33 62.329-34.37 0-62.328-27.958-62.328-62.329S37.692 9.67 72.063 9.67Z" fill="#242424" fill-opacity=".5"/><path d="M72.063 9.67c34.433 0 62.441 27.959 62.441 62.33 0 34.371-28.008 62.329-62.441 62.329C37.63 134.329 9.62 106.371 9.62 72S37.63 9.67 72.063 9.67Zm0-7.544c-38.658 0-70 31.286-70 69.874 0 38.588 31.342 69.874 70 69.874 38.657 0 70-31.286 70-69.874.008-38.588-31.334-69.874-70-69.874Z" fill="#373737" fill-opacity=".5"/><path d="M72.067 141.966c-38.58 0-69.966-31.386-69.966-69.966S33.488 2.034 72.067 2.034a3.578 3.578 0 0 1 3.58 3.58 3.578 3.578 0 0 1-3.58 3.579C37.437 9.193 9.27 37.36 9.27 71.992s28.167 62.798 62.798 62.798 62.799-28.167 62.799-62.798a3.578 3.578 0 0 1 3.58-3.58 3.578 3.578 0 0 1 3.579 3.58c.009 38.588-31.378 69.974-69.958 69.974Z" fill="url(#a)"/><defs><radialGradient id="a" cx="0" cy="0" r="1" gradientUnits="userSpaceOnUse" gradientTransform="matrix(93.05391 67.48512 -67.48101 93.04825 41.083 31.794)"><stop offset=".387" stop-color="#FFFDFD"/><stop offset=".853" stop-color="#FFFDFD" stop-opacity="0"/></radialGradient></defs></svg>
